src/icons/file-vue.svg

<svg xmlns="http://www.w3.org/2000/svg" width="16" height="16" version="1.2"><path fill-rule="evenodd" d="M8 14c-3.3 0-6-2.7-6-6s2.7-6 6-6 6 2.7 6 6-2.7 6-6 6M5.3 5.2h1.2c.1 0 .2 0 .3.1q.1 0 .2.1c.1.1.1.2.1.4L8 7.1l.9-1.3c0-.2 0-.3.1-.4q.1-.1.2-.1c.1-.1.2-.1.3-.1h1.2c.6 0 .8 0 1 .2q.2.1.2.4c0 .1-.1.4-.4.8l-2.7 4.5c-.3.4-.5.6-.6.7h-.4c-.1-.1-.3-.3-.6-.7L4.5 6.6c-.3-.4-.4-.7-.4-.8q0-.3.2-.4c.2-.2.4-.2 1-.2" style="fill:#8cc162"/></svg>

<?xml version="1.0" encoding="UTF-8" standalone="no"?>
<svg
   version="1.2"
   viewBox="0 0 16 16"
   width="16"
   height="16"
   id="svg1"
   sodipodi:docname="vue.svg"
   inkscape:version="1.4 (e7c3feb100, 2024-10-09)"
   xmlns:inkscape="http://www.inkscape.org/namespaces/inkscape"
   xmlns:sodipodi="http://sodipodi.sourceforge.net/DTD/sodipodi-0.dtd"
   xmlns="http://www.w3.org/2000/svg"
   xmlns:svg="http://www.w3.org/2000/svg">
  <defs
     id="defs1" />
  <sodipodi:namedview
     id="namedview1"
     pagecolor="#505050"
     bordercolor="#eeeeee"
     borderopacity="1"
     inkscape:showpageshadow="0"
     inkscape:pageopacity="0"
     inkscape:pagecheckerboard="0"
     inkscape:deskcolor="#505050"
     inkscape:zoom="34.5"
     inkscape:cx="8"
     inkscape:cy="8.2608696"
     inkscape:window-width="1326"
     inkscape:window-height="755"
     inkscape:window-x="20"
     inkscape:window-y="52"
     inkscape:window-maximized="0"
     inkscape:current-layer="svg1" />
  <title
     id="title1">vue-svg</title>
  <style
     id="style1">
		.s0 { fill: #8cc162 } 
	</style>
  <g
     id="Layer 1">
    <path
       id="Forma 1"
       fill-rule="evenodd"
       class="s0"
       d="M 8,14 C 4.7,14 2,11.3 2,8 2,4.7 4.7,2 8,2 c 3.3,0 6,2.7 6,6 0,3.3 -2.7,6 -6,6 z M 5.3,5.2 h 1.2 c 0.1,0 0.2,0 0.3,0.1 0.066667,0 0.1333333,0.033333 0.2,0.1 0.1,0.1 0.1,0.2 0.1,0.4 L 8,7.1 8.9,5.8 C 8.9,5.6 8.9,5.5 9,5.4 9.0666667,5.3333333 9.1333333,5.3 9.2,5.3 9.3,5.2 9.4,5.2 9.5,5.2 h 1.2 c 0.6,0 0.8,0 1,0.2 0.133333,0.066667 0.2,0.2 0.2,0.4 0,0.1 -0.1,0.4 -0.4,0.8 L 8.8,11.1 C 8.5,11.5 8.3,11.7 8.2,11.8 H 7.8 C 7.7,11.7 7.5,11.5 7.2,11.1 L 4.5,6.6 C 4.2,6.2 4.1,5.9 4.1,5.8 4.1,5.6 4.1666667,5.4666667 4.3,5.4 4.5,5.2 4.7,5.2 5.3,5.2 Z"
       sodipodi:nodetypes="ssssssscscccscsscsccccccscs" />
  </g>
</svg>
